X:74
T: DA DROBEN AUF DEM BERGE
N: Z0074A
O: Europa, Mitteleuropa, Deutschland, Sued - Deutschland
N: Zweiter Teil des Liedes Z0074
R: Sagen - Lied, Romanze
M: 6/8
L: 1/16
K: G
D2 | D2G2GGF2F2FF | F2D2F2G2z2
G2 | GGB2BBddc2c2 | c2D2F2G4
D2 | B4AGG2F2D2 | c4BAA2G2G2 |
B4AGG2F2D2 | c4BAA2G2G2 |
G2B2B2d2c2c2 | c2D2F2A2z2
F2 | G2B2B2d2c2c2 | c2D2F2G2z2
D2 | D2G2G2F2z2c2 | c2D2F2G2z2
D2 | D2G2G2F2z2c2 | c2D2F2G2z2
D2 | D2G2G2F2z2c2 | c2D2F2G2z2
D2 | D2G2G2F2z2c2 | c2D2F2G4

@@@ Tune index: 9832
